X:1
T:The 1976 Police Tattoo
M:C
L:1/8
Q:80
C:Angus Lawrie
S:March
K:HP
[| e | \
{g}A3/2B/2{GdG}ce{g}fa{ef}e3/2d/2 | \
{gcd}c{e}A{g}B{d}c{GBG}A2{GAG}A3/2e/2 | \
{g}A3/2B/2{GdG}ce{g}fa{ef}e3/2d/2 |
{gcd}ce{ag}a3/2f/2{gef}e3{A}e | \
{g}f3/2e/2{g}fa{g}a2f3/2e/2 | \
{gcd}ce{g}f3/2e/2{A}e2-e{gcd}c3/4B/4 |
{g}A3/2B/2{GdG}ce{g}fa{ef}e3/2d/2 | \
{gcd}c{e}A{d}B{d}c{GBG}A2{GAG}A|] [ | \
e |
{g}c3/2d/2{g}ec{gfg}f2{g}e3/2d/2 | \
{gcd}c{e}A{g}B{d}c{GBG}A2{GAG}A3/2e/2 | \
{g}c3/2d/2{g}ec{gfg}f2{g}e3/2d/2 |
{gcd}ce{ag}a3/2f/2{gef}e3{A}e | \
{g}f3/2e/2{g}fa{g}a2f3/2e/2 | \
{gcd}ce{g}f3/2e/2{A}e2-e{gcd}c3/4B/4 |
{g}A3/2B/2{GdG}ce{g}fa{ef}e3/2d/2 | \
{gcd}c{e}A{g}B{d}c{GBG}A2{GAG}A|]
